rospo-light/32x32/apps/ukuu.svg

<?xml version="1.0" encoding="UTF-8" standalone="no"?>
<svg
   xmlns:dc="http://purl.org/dc/elements/1.1/"
   xmlns:cc="http://creativecommons.org/ns#"
   xmlns:rdf="http://www.w3.org/1999/02/22-rdf-syntax-ns#"
   xmlns:svg="http://www.w3.org/2000/svg"
   xmlns="http://www.w3.org/2000/svg"
   xmlns:sodipodi="http://sodipodi.sourceforge.net/DTD/sodipodi-0.dtd"
   xmlns:inkscape="http://www.inkscape.org/namespaces/inkscape"
   width="32"
   height="32"
   version="1"
   id="svg12"
   sodipodi:docname="ukuu.svg"
   inkscape:version="0.92.1 r">
  <metadata
     id="metadata18">
    <rdf:RDF>
      <cc:Work
         rdf:about="">
        <dc:format>image/svg+xml</dc:format>
        <dc:type
           rdf:resource="http://purl.org/dc/dcmitype/StillImage" />
      </cc:Work>
    </rdf:RDF>
  </metadata>
  <defs
     id="defs16" />
  <sodipodi:namedview
     pagecolor="#ffffff"
     bordercolor="#666666"
     borderopacity="1"
     objecttolerance="10"
     gridtolerance="10"
     guidetolerance="10"
     inkscape:pageopacity="0"
     inkscape:pageshadow="2"
     inkscape:window-width="640"
     inkscape:window-height="480"
     id="namedview14"
     showgrid="false"
     inkscape:zoom="8.375"
     inkscape:cx="-6.6865672"
     inkscape:cy="16"
     inkscape:current-layer="svg12" />
  <rect
     style="opacity:1;fill:#29dc47;fill-opacity:1;fill-rule:evenodd;stroke:none;stroke-width:1.03534329;stroke-linecap:round;stroke-linejoin:bevel;stroke-miterlimit:4;stroke-dasharray:none;stroke-dashoffset:0;stroke-opacity:1"
     id="rect4497-3-3"
     width="28.203388"
     height="28.203388"
     x="1.8983059"
     y="1.8983059"
     ry="5.575182" />
  <path
     style="fill:#3f3f3f"
     d="m 16.017554,8.0070262 c -0.7789,-0.00775 -1.552534,0.1033613 -2.302734,0.3007812 -3.4966,0.9006 -5.7678565,4.2083466 -5.7148435,7.6855466 h -2 l 3,4.013672 2.9999995,-4.013672 H 9.9999765 c -0.0067,-1.4563 0.2287815,-2.907041 1.2382815,-3.99414 1.761399,-1.9918 5.255343,-2.8069972 7.777343,-1.341797 0.83781,1.0529 2.696943,-0.103794 1.720703,-1.1835939 -1.3886,-1.03847 -2.96555,-1.4630969 -4.71875,-1.4667969 z m 6.982422,3.9863278 -3,4.013672 h 2 c 0.0067,1.4563 -0.228781,2.907041 -1.238281,3.994141 -1.8975,2.19064 -5.255344,2.806996 -7.777344,1.341797 -0.83781,-1.052901 -2.696943,0.10184 -1.720703,1.18164 1.3886,1.03847 2.96555,1.46505 4.71875,1.46875 l 0.002,-0.002 c 0.7789,0.0078 1.550581,-0.101408 2.300781,-0.298828 3.4966,-0.9006 5.767854,-4.208347 5.714844,-7.685547 h 2 z"
     id="path8"
     inkscape:connector-curvature="0" />
</svg>

<svg xmlns="http://www.w3.org/2000/svg" width="32" height="32" version="1">
 <path style="opacity:0.2" d="M 16.039099,5.0004009 C 14.863656,4.9906909 13.742902,5.157878 12.702403,5.4300788 8.6220209,6.4817008 5.7748276,9.6405432 4.6250166,13.355685 2.2291911,14.266916 1.1587747,17.242671 2.7628116,19.388754 l 3.0077254,4.015535 c 6.517e-4,6.52e-4 0.0013,0.0013 0.00195,0.002 0.3985639,0.529669 1.0015781,0.821116 1.5978541,1.097632 0.2167644,0.617186 0.4709766,1.226028 0.9066255,1.706993 0.1732743,0.191701 0.3648073,0.366565 0.5717811,0.521473 2.1446153,1.600876 4.6893523,2.256744 7.1041843,2.265575 -0.02815,-9.7e-5 -0.115606,-1.73e-4 0.0059,0.002 0.0059,5.1e-5 0.01175,5.1e-5 0.01762,0 1.649678,0 2.409142,-0.267427 3.244662,-0.414054 0.02568,-0.0049 0.05115,-0.01073 0.07637,-0.01758 4.080384,-1.051623 6.927576,-4.210467 8.077387,-7.925605 2.396089,-0.91106 3.466366,-3.886821 1.862205,-6.033069 l -3.007704,-4.015535 c -6.52e-4,-6.52e-4 -0.0013,-0.0013 -0.002,-0.0019 C 25.828854,10.062378 25.22582,9.7709681 24.629523,9.4944416 24.413022,8.8766523 24.15937,8.2673734 23.722897,7.7854952 23.549625,7.5937989 23.358095,7.4189341 23.151116,7.2640225 21.003784,5.6611192 18.457663,5.0087522 16.044973,5.0004009 Z"/>
 <path style="fill:#29dc47" d="m 16.039099,4.0004012 c -1.175443,-0.00971 -2.296197,0.1574771 -3.336696,0.4296779 -4.0803821,1.051622 -6.9275754,4.2104644 -8.0773864,7.9256059 -2.3958255,0.911231 -3.4662419,3.886986 -1.862205,6.033069 l 3.0077254,4.015535 c 6.517e-4,6.52e-4 0.0013,0.0013 0.00195,0.002 0.3985639,0.529669 1.0015781,0.821116 1.5978541,1.097632 0.2167644,0.617186 0.4709766,1.226028 0.9066255,1.706993 0.1732743,0.191701 0.3648073,0.366565 0.5717811,0.521473 2.1446153,1.600876 4.6893523,2.256744 7.1041843,2.265575 -0.02815,-9.7e-5 -0.115606,-1.73e-4 0.0059,0.002 0.0059,5.1e-5 0.01175,5.1e-5 0.01762,0 1.649678,0 2.409142,-0.267427 3.244662,-0.414054 0.02568,-0.0049 0.05115,-0.01073 0.07637,-0.01758 4.080384,-1.051623 6.927576,-4.210467 8.077387,-7.925605 2.396089,-0.91106 3.466366,-3.886821 1.862205,-6.033069 L 26.229372,9.5941188 c -6.52e-4,-6.519e-4 -0.0013,-0.0013 -0.002,-0.00195 C 25.828854,9.0623781 25.22582,8.7709684 24.629523,8.4944419 24.413022,7.8766526 24.15937,7.2673737 23.722897,6.7854955 23.549625,6.5937992 23.358095,6.4189344 23.151116,6.2640228 21.003784,4.6611195 18.457663,4.0087525 16.044973,4.0004012 Z"/>
 <path style="opacity:0.2;fill:#0b0302" d="M 16.017578,9 C 15.238678,8.99225 14.465044,9.1033613 13.714844,9.3007812 10.218244,10.201381 7.946987,13.509128 8,16.986328 H 6 L 9,21 12,16.986328 h -2 c -0.0067,-1.4563 0.228781,-2.907041 1.238281,-3.99414 1.7614,-1.9918 5.255344,-2.806997 7.777344,-1.341797 0.83781,1.0529 2.696943,-0.103794 1.720703,-1.183594 C 19.347728,9.4283269 17.770778,9.0037 16.017578,9 Z M 23,12.986328 20,17 h 2 c 0.0067,1.4563 -0.228781,2.907041 -1.238281,3.994141 -1.8975,2.19064 -5.255344,2.806996 -7.777344,1.341797 -0.83781,-1.052901 -2.696943,0.10184 -1.720703,1.18164 1.3886,1.03847 2.96555,1.46505 4.71875,1.46875 l 0.002,-0.002 c 0.7789,0.0078 1.550581,-0.101408 2.300781,-0.298828 C 21.781756,23.784947 24.05301,20.4772 24,17 h 2 z"/>
 <path style="fill:#3f3f3f" d="M 16.017578 8 C 15.238678 7.99225 14.465044 8.1033613 13.714844 8.3007812 C 10.218244 9.2013812 7.946987 12.509128 8 15.986328 L 6 15.986328 L 9 20 L 12 15.986328 L 10 15.986328 C 9.9933 14.530028 10.228781 13.079287 11.238281 11.992188 C 12.999681 10.000388 16.493625 9.1851906 19.015625 10.650391 C 19.853435 11.703291 21.712568 10.546597 20.736328 9.4667969 C 19.347728 8.4283269 17.770778 8.0037 16.017578 8 z M 23 11.986328 L 20 16 L 22 16 C 22.0067 17.4563 21.771219 18.907041 20.761719 19.994141 C 18.864219 22.184781 15.506375 22.801137 12.984375 21.335938 C 12.146565 20.283037 10.287432 21.437778 11.263672 22.517578 C 12.652272 23.556048 14.229222 23.982628 15.982422 23.986328 L 15.984375 23.984375 C 16.763275 23.992125 17.534956 23.882967 18.285156 23.685547 C 21.781756 22.784947 24.05301 19.4772 24 16 L 26 16 L 23 11.986328 z"/>
 <path style="fill:#ffffff;opacity:0.2" d="M 16.039062 4 C 14.86362 3.99029 13.743624 4.1574867 12.703125 4.4296875 C 8.6227429 5.4813095 5.774811 8.6403273 4.625 12.355469 C 2.8412799 13.033891 1.7947622 14.856142 2.0371094 16.628906 C 2.220107 15.2102 3.1781736 13.905756 4.625 13.355469 C 5.774811 9.640327 8.6227429 6.4813095 12.703125 5.4296875 C 13.743624 5.1574867 14.86362 4.99029 16.039062 5 L 16.044922 5 C 18.457612 5.0083513 21.003059 5.6607686 23.150391 7.2636719 C 23.35737 7.4185835 23.549384 7.59346 23.722656 7.7851562 C 24.159129 8.2670344 24.412405 8.8763513 24.628906 9.4941406 C 25.225203 9.7706671 25.828045 10.061956 26.226562 10.591797 C 26.226562 10.591797 26.228516 10.59375 26.228516 10.59375 L 29.236328 14.609375 C 29.646134 15.157665 29.879679 15.760832 29.962891 16.369141 C 30.082894 15.438572 29.871745 14.459515 29.236328 13.609375 L 26.228516 9.59375 C 26.228516 9.59375 26.226562 9.5917969 26.226562 9.5917969 C 25.828044 9.0620062 25.225203 8.7706671 24.628906 8.4941406 C 24.412405 7.8763513 24.159129 7.2670345 23.722656 6.7851562 C 23.549384 6.59346 23.35737 6.4185835 23.150391 6.2636719 C 21.003059 4.6607686 18.457612 4.0083513 16.044922 4 L 16.039062 4 z"/>
</svg>
